X:507
T:Dragoon’s Slow March,The. RH.507
R:march
S:Rev.R.Harrison’s MS,c1815,Cumbria
O:England
A:Temple Sowerby,Cumbria
Z:vmp.Simon Wilson. Review PJH, 2008.
M:C
L:1/8
Q:2/4=60
K:G
D2|G2G>G G2(Bc)|d>BG2 G2B>c|\
e<cg2 d<Bg2|fgag fedc|!
B2d>B A2c>A|GABc dfga|\
bgfg fed^c|d2d>d d2:|!
|:f>g|a2a>a ac’ba|g2g>g gbag|\
fedg fedc|B2A>A A2(d/c/B/A/)|!
G2G>G G2c>d|e<ca2 d<Bg2|\
(Bd)(ce) (Ad)(DF)|G2G>GG2:|!
|:z2|B4 A4|G4 DGBd|dccc cBBB|BAAA A4|\
d4 c4|B4 ABcd|e>cB>A G2F2|A4 G2:|!
|:z2|g>fa>b f2zf|g>gb>b g2zG|ABcd efga|g4 fedc|\
B4A4|d4c4|B>dc>AG2F2|A4G2|]

